!!!CDT:
!!!PTL: Li Diversi Scherzi a una, a due et tre voci. Libro primo
!!!PPP: Rome
!!!PPR: Giovanni Battista Robletti
!!!PDT: 1613
!!!RISM: C 2214
!!!rime:
!!!AGN: Madrigal
!!!SCT: Tsg16012f
!!!SCA: Tsg16012f
!!!voices:
!!!COM: Cifra, Antonio
!!!OTL: Vezzosi augelli infra le verdi fronde
**kern	**kern	**text	**kern	**text
*part3	*part2	*part2	*part1	*part1
*staff3	*staff2	*staff2	*staff1	*staff1
*I"[Basso continuo]	*I"[Canto II]	*	*I"[Canto I]	*
*I'Bc	*I'C II	*	*I'C I	*
*oclefF4	*oclefC1	*	*oclefC1	*
*clefF4	*clefG2	*	*clefG2	*
*k[b-]	*k[b-]	*	*k[b-]	*
*F:	*F:	*	*F:	*
*omet(C)	*omet(C)	*	*omet(C)	*
*M4/4	*M4/4	*	*M4/4	*
=1	=1	=1	=1	=1
!	!	!	!LO:TX:a:t=Aria di Romanesca a due Soprani. [Prima stanza.]	!
1BB-y	1r	.	1r	.
=2	=2	=2	=2	=2
2BB-y	8r	.	8r	.
.	8dd	Vez-	8ff	Vez-
.	8b-y	-zo-	8dd	-zo-
.	8cc	-s'Au-	8ee	-s'Au-
2BB-y	4dd	-gel-	4ff	-gel-
.	4b-y	-li in	4dd	-li in
=3	=3	=3	=3	=3
2F	8aL	fra	8ccL	fra
.	8b-yJ	.	8ddJ	.
.	8aL	.	8ccL	.
.	8b-yJ	.	8b-yJ	.
4F	8ccL	.	8aL	.
.	8ddJ	.	8b-yJ	.
[4F	8ccL	.	8aL	.
.	8b-yJ	.	8gJ	.
=4	=4	=4	=4	=4
4F]	4a	.	4f	.
4F	4dd	le	4a	le
2G	[2ee-X	ver-	2b-y	ver-
=5	=5	=5	=5	=5
2D	4ee-]	.	2a	-di
.	2dd	-di	.	.
2E-X	.	.	4.a	fron-
.	4cc	fron-	.	.
.	.	.	8g	.
=6	=6	=6	=6	=6
2.D	1dd	-de	2a	-de
.	.	.	4r	.
4D	.	.	[4ff	Tem-
=7	=7	=7	=7	=7
4D	2r	.	8ff]	.
.	.	.	8ff	-pra-
4C	.	.	4ee	-n'a
[2BB-y	4r	.	4dd	pro-
.	[4dd	Tem-	4b-y	-va,
=8	=8	=8	=8	=8
4BB-]	8dd]	.	4r	.
.	8dd	-pra-	.	.
4AA	4cc	-n'a	4.ff	<Tem-
2GG	2b-y	pro-	.	.
.	.	.	8ee-X	-pra-
.	.	.	4ee-i	-n'a
=9	=9	=9	=9	=9
1FF	4a	-va	4dd	pro-
.	8a	la	4cc	-va>
.	8f	sci-	.	.
.	2cc	-vet-	4r	.
.	.	.	8a	la-
.	.	.	8f	-sci-
=10	=10	=10	=10	=10
2F	4a	-te,	4cc	-vet-
.	8dd	la-	4a	-te,
.	8cc	-sci-	.	.
2G	[2ee-X	-vet-	4r	.
.	.	.	8b-y	la-
.	.	.	8g	-sci-
=11	=11	=11	=11	=11
2C	4ee-]	.	8a	-vet-
.	.	.	8g	-te
.	4a	-te	2g	no-
2D	2a	no-	.	.
.	.	.	4f#X	.
=12	=12	=12	=12	=12
4GG	2g	-te,	2g	-te,
2G	.	.	.	.
.	2r	.	4r	.
4F#X	.	.	[4dd	Tem-
=13	=13	=13	=13	=13
4G	2r	.	8dd]	.
.	.	.	8dd	-pra-
4A	.	.	4cc	-n'a
2B-y	4r	.	4b-y	pro-
.	[4dd	Tem-	4f	-va
=14	=14	=14	=14	=14
2A	8dd]	.	2r	.
.	8dd	-pra-	.	.
.	4cc	-n'a	.	.
2G	2b-y	pro-	4r	.
.	.	.	8dd	la-
.	.	.	8ee	-sci-
=15	=15	=15	=15	=15
1F	4a	-va	2ff	-vet-
.	8a	la-	.	.
.	8b-y	-sci-	.	.
.	2cc	-vet-	4a	-te,
.	.	.	8a	la-
.	.	.	8b-y	-sci-
=16	=16	=16	=16	=16
2F	4a	-te,	2.cc	-vet-
.	8cc	la-	.	.
.	8dd	-sci-	.	.
2G	[2ee-X	-vet-	.	.
.	.	.	4b-y	-te
=17	=17	=17	=17	=17
2C	4ee-]	.	8aL	no-
.	.	.	8gJ	.
.	4cc	-te	2g	.
2D	2a	no-	.	.
.	.	.	4f#X	.
=18	=18	=18	=18	=18
1GG	1g	-te.	1g	-te.
=19||	=19||	=19||	=19||	=19||
!	!	!	!LO:TX:a:t=Seconda stanza.	!
1BB-y	2r	.	4b-y	Mor-
.	.	.	8b-y	-mo-
.	.	.	8cc	-ra
.	4b-y	Mor-	8ddL	l'Au-
.	.	.	8ccJ	.
.	8b-y	-mo-	8ddL	.
.	8cc	-ra	8eeJ	.
=20	=20	=20	=20	=20
2BB-y	8ddL	l'Au-	2ff	.
.	8eeJ	.	.	.
.	8ddL	.	.	.
.	8eeJ	.	.	.
2BB-y	2ff	.	2dd	-ra,
=21	=21	=21	=21	=21
2F	2cc	-ra,	4r	.
.	.	.	4f	e
4F	4r	.	16fL	fa
.	.	.	16g	.
.	.	.	16a	.
.	.	.	16b-yJ	.
[4F	4f	e	4cc	.
=22	=22	=22	=22	=22
4F]	16fL	fa	4r	.
.	16g	.	.	.
.	16a	.	.	.
.	16b-yJ	.	.	.
4F	4cc	.	4a	le
2G	4r	.	2b-y	fo-
.	4dd	le	.	.
=23	=23	=23	=23	=23
2D	4.ff	fo-	4a	-gl'e
.	.	.	2dd	l'on-
.	8f	-gl'e	.	.
2E-X	2g	l'on-	.	.
.	.	.	4cc	.
=24	=24	=24	=24	=24
2.D	2.a	-de	1dd	-de
4D	4ff	Gar-	.	.
=25	=25	=25	=25	=25
4D	8ffL	-rir,	2r	.
.	8eeJ	.	.	.
4C	8eeL	.	.	.
.	16dd	.	.	.
.	16ccJ	.	.	.
[2BB-y	2dd	.	4r	.
.	.	.	4dd	Gar-
=26	=26	=26	=26	=26
4BB-]	4r	.	8ddL	-rir,
.	.	.	8ccJ	.
4AA	4cc	Gar-	8ccL	.
.	.	.	16b-y	.
.	.	.	16aJ	.
2GG	8ee-XL	-rir,	2b-y	.
.	8ddJ	.	.	.
.	8ddL	.	.	.
.	16cc	.	.	.
.	16b-yJ	.	.	.
=27	=27	=27	=27	=27
1FF	2cc	.	8r	.
.	.	.	8f	che
.	.	.	8a	va-
.	.	.	8b-y	-ria-
.	8r	.	2cc	-men-
.	8cc	che	.	.
.	8a	va-	.	.
.	8g	-ria-	.	.
=28	=28	=28	=28	=28
2F	4f	-men-	2a	-te
.	2d	-te el-	.	.
2G	.	.	4r	.
.	8e	-la	[4dd	el-
.	8f	per-	.	.
=29	=29	=29	=29	=29
2C	2.g	-co-	4dd]	.
.	.	.	8cc	-la
.	.	.	8b-y	per-
2D	.	.	2a	-co-
.	4f#X	.	.	.
=30	=30	=30	=30	=30
4GG	2g	-te,	2g	-te,
2G	.	.	.	.
.	2r	.	4r	.
4F#X	.	.	4a	Gar-
=31	=31	=31	=31	=31
4G	2r	.	8b-yL	-rir,
.	.	.	16cc	.
.	.	.	16ddJ	.
4A	.	.	8ccL	.
.	.	.	16dd	.
.	.	.	16eeJ	.
[2B-y	4r	.	2dd	.
.	4f	Gar-	.	.
=32	=32	=32	=32	=32
4B-]	8gL	-rir,	4r	.
.	16a	.	.	.
.	16b-yJ	.	.	.
4A	8aL	.	4cc	Gar-
.	16b-y	.	.	.
.	16ccJ	.	.	.
2G	2b-y	.	8ddL	-rir,
.	.	.	16ee	.
.	.	.	16ffJ	.
.	.	.	8eeL	.
.	.	.	16ff	.
.	.	.	16ggJ	.
=33	=33	=33	=33	=33
1F	8r	.	2ff	.
.	8cc	che	.	.
.	8dd	va-	.	.
.	8ee	-ria-	.	.
.	[2ff	-men-	8r	.
.	.	.	8dd	che
.	.	.	8cc	va-
.	.	.	8b-y	-ria-
=34	=34	=34	=34	=34
2F	4ff]	.	4a	-men-
.	2dd	-te el-	4f	-te
2G	.	.	4r	.
.	8b-y	-la	[4ee-X	el-
.	8a	per-	.	.
=35	=35	=35	=35	=35
2C	2.g	-co-	4ee-]	.
.	.	.	8cc	-la
.	.	.	8b-y	per-
2D	.	.	2a	-co-
.	4f#X	.	.	.
=36	=36	=36	=36	=36
1GG	1g	-te.	1g	-te.
=37||	=37||	=37||	=37||	=37||
!	!	!	!LO:TX:a:t=Terza stanza.	!
1BB-y	4r	.	4r	.
.	8f	Quan-	8d	Quan-
.	8f	-do	8d	-do
.	4f	tac-	4d	tac-
.	8f	-cio	8d	-cio
.	8f	gl'Au-	8d	gl'Au-
=38	=38	=38	=38	=38
2BB-y	2f	-gel-	2d	-gel-
2BB-y	2f	-li,	2d	-li,
=39	=39	=39	=39	=39
2F	4r	.	4r	.
.	8fL	al-	8aL	al-
.	8gJ	.	8b-yJ	.
4F	8aL	.	8ccL	.
.	8gJ	.	8b-yJ	.
[4F	8gL	.	8b-yL	.
.	16f	.	16a	.
.	16gJ	.	16b-yJ	.
=40	=40	=40	=40	=40
4F]	8aL	.	8ccL	.
.	16b-y	.	16dd	.
.	16ccJ	.	16eeJ	.
4F	8ddL	.	8ffL	.
.	8ccJ	.	8eeJ	.
2G	[2b-y	.	[2dd	.
=41	=41	=41	=41	=41
2D	4b-]	.	4dd]	.
.	8f#X	-to	8a	-to
.	8f#i	ri-	8a	ri-
2E-X	2g	-spon-	2cc	-spon-
=42	=42	=42	=42	=42
2.D	2.f#X	-de;	2.a	-de;
4D	8f#i	Quan-	8a	Quan-
.	8f#i	-do	8a	-do
=43	=43	=43	=43	=43
4D	4f#i	can-	4a	can-
4C	8g	-tan	8b-y	-tan
.	8a	gl'Au-	8cc	gl'Au-
[2BB-y	4b-y	-gei,	4dd	-gei,
.	8fnXi	<Quan-	8d	<Quan-
.	8f	-do	8d	-do
=44	=44	=44	=44	=44
4BB-]	4f	can-	4d	can
4AA	8g	-tan	8e	tan
.	8a	gl'Au-	8f	gl'Au-
2GG	2b-y	-gei,>	2g	-gei,>
=45	=45	=45	=45	=45
1FF	2r	.	4r	.
.	.	.	4cc	più
.	4r	.	8ffL	lie-
.	.	.	16ee	.
.	.	.	16ddJ	.
.	4a	più	16ccL	.
.	.	.	16b-y	.
.	.	.	16a	.
.	.	.	16gJ	.
=46	=46	=46	=46	=46
2F	8ddL	lie-	4f	.
.	16cc	.	.	.
.	16b-yJ	.	.	.
.	16aL	.	8f	-ve,
.	16g	.	.	.
.	16f	.	8a	più
.	16eJ	.	.	.
2G	2d	.	[2b-y	lie-
=47	=47	=47	=47	=47
2C	16eL	-ve	4b-]	.
.	16d	.	.	.
.	16e	.	.	.
.	16fJ	.	.	.
.	2g	sco-	16aL	-ve
.	.	.	16b-y	.
.	.	.	16cc	.
.	.	.	16b-yJ	.
2D	.	.	2a	sco-
.	4f#X	.	.	.
=48	=48	=48	=48	=48
4GG	2g	-te,	2g	-te,
2G	.	.	.	.
.	4r	.	2r	.
4F#X	8a	Quan-	.	.
.	8a	-do	.	.
=49	=49	=49	=49	=49
4G	4b-y	can-	2r	.
4A	8a	-tan	.	.
.	8g	gl'Au-	.	.
[2B-y	2f	-gei,	4r	.
.	.	.	8dd	Quan-
.	.	.	8dd	-do
=50	=50	=50	=50	=50
4B-]	2r	.	4ff	can-
4A	.	.	8dd	-tan
.	.	.	8cc	gl'Au-
2G	4r	.	4b-y	-gei,
.	8dd	<Quan-	8b-y	<Quan-
.	8dd	-do	8b-y	-do
=51	=51	=51	=51	=51
1F	4ff	can-	4dd	can-
.	8ee	-tan	8cc	-tan
.	8dd	gl'Au-	8b-y	gl'Au-
.	2cc	-gei,>	4a	-gei,>
.	.	.	4a	più
=52	=52	=52	=52	=52
2F	4r	.	8.ccL	lie-
.	.	.	16b-yJ	.
.	4dd	più	16aL	.
.	.	.	16g	.
.	.	.	16f	.
.	.	.	16eJ	.
2G	8.ggL	lie-	2d	.
.	16ffJ	.	.	.
.	16eeL	.	.	.
.	16dd	.	.	.
.	16cc	.	.	.
.	16b-yJ	.	.	.
=53	=53	=53	=53	=53
2C	4.a	.	4e	-ve
.	.	.	2g	sco-
.	8a	-ve	.	.
2D	2a	sco-	.	.
.	.	.	4f#X	.
=54	=54	=54	=54	=54
!	!	!	!LO:TX:a:t=Quarta stanza.	!
1GG	1g	-te.	1g	-te.
=55||	=55||	=55||	=55||	=55||
1BB-y	2r	.	2ff	Sia
.	2ff	Sia	4.dd	ca-
.	.	.	8cc	.
=56	=56	=56	=56	=56
2BB-y	4.dd	ca-	4.b-y	.
.	8cc	.	16aL	.
.	.	.	16gJ	.
2BB-y	4.b-y	.	4.f	.
.	8b-y	-s'od	8g	-s'od
=57	=57	=57	=57	=57
2F	[2cc	ar-	2a	ar-
4F	8cc]	.	2a	-te,
.	8cc	-te, hor	.	.
[4F	8cc	ac-	.	.
.	8b-y	-com-	.	.
=58	=58	=58	=58	=58
4F]	4a	-pa-	8r	.
.	.	.	8dd	hor
4F	4a	-gna,	8dd	ac-
.	.	.	8cc	-com-
2G	8r	.	4.b-y	-pa-
.	8dd	hor	.	.
.	8dd	ac-	.	.
.	8cc	-com-	16aL	.
.	.	.	16gJ	.
=59	=59	=59	=59	=59
2D	8b-y	-pa-	4.f#X	.
.	8a	-gn'ed	.	.
.	2dd	ho-	.	.
.	.	.	8f#i	-gn'ed
2E-X	.	.	2g	ho-
.	4cc	.	.	.
=60	=60	=60	=60	=60
2.D	2dd	-ra	2f#X	-ra
.	4r	.	2r	.
4D	4ff	Al-	.	.
=61	=61	=61	=61	=61
4D	16ffL	-ter-	2r	.
.	16dd	.	.	.
.	16ee	.	.	.
.	16ffJ	.	.	.
4C	16ee-XL	.	.	.
.	16cc	.	.	.
.	16dd	.	.	.
.	16ee-XJ	.	.	.
[2BB-y	16ddL	.	4r	.
.	16eenXi	.	.	.
.	16ff	.	.	.
.	16eeJ	.	.	.
.	16ddL	.	4dd	Al-
.	16cc	.	.	.
.	16b-y	.	.	.
.	16aJ	.	.	.
=62	=62	=62	=62	=62
4BB-]	4b-y	.	16ddL	-ter-
.	.	.	16b-y	.
.	.	.	16cc	.
.	.	.	16ddJ	.
4AA	4f	-n'i	16ccL	.
.	.	.	16a	.
.	.	.	16b-y	.
.	.	.	16ccJ	.
2GG	4.g	ver-	8b-y	.
.	.	.	8cc	-n'i
.	.	.	8cc	ver-
.	8g	-si	8b-y	-si
=63	=63	=63	=63	=63
1FF	1a	lor	1cc	lor
=64	=64	=64	=64	=64
2F	2r	.	8r	.
.	.	.	16fL	la
.	.	.	16gJ	.
.	.	.	16aL	.
.	.	.	16b-y	.
.	.	.	16cc	.
.	.	.	16ddJ	.
2G	8r	.	2b-y	.
.	16gL	la	.	.
.	16aJ	.	.	.
.	16b-yL	.	.	.
.	16cc	.	.	.
.	16dd	.	.	.
.	16ee-XJ	.	.	.
=65	=65	=65	=65	=65
2C	4cc	.	8a	mu-
.	.	.	8g	-si-
.	8b-y	mu-	2g	-c'ho-
.	8a	-si-	.	.
2D	2a	-c'ho-	.	.
.	.	.	4f#X	.
=66	=66	=66	=66	=66
4GG	2g	-ra,	2g	-ra,
2G	.	.	.	.
.	2r	.	4r	.
4F#X	.	.	4a	al-
=67	=67	=67	=67	=67
4G	2r	.	16b-yL	-ter-
.	.	.	16cc	.
.	.	.	16dd	.
.	.	.	16b-yJ	.
4A	.	.	16ccL	.
.	.	.	16dd	.
.	.	.	16ee-X	.
.	.	.	16ccJ	.
[2B-y	4r	.	16ddL	.
.	.	.	16eenXi	.
.	.	.	16ff	.
.	.	.	16eeJ	.
.	4f	al	16ddL	.
.	.	.	16cc	.
.	.	.	16b-y	.
.	.	.	16aJ	.
=68	=68	=68	=68	=68
4B-]	16gL	ter-	16b-yL	.
.	16a	.	16cc	.
.	16b-y	.	16dd	.
.	16gJ	.	16b-yJ	.
4A	16aL	.	16ccL	.
.	16b-y	.	16dd	.
.	16cc	.	16ee-X	.
.	16aJ	.	16ccJ	.
2G	8b-y	.	8dd	.
.	8a	-n'i	8cc	-n'i
.	8a	ver-	8cc	ver-
.	8g	-si	8b-y	-si
=69	=69	=69	=69	=69
1F	2.a	lor	1cc	lor
.	16aL	la	.	.
.	16g	.	.	.
.	16a	.	.	.
.	16b-yJ	.	.	.
=70	=70	=70	=70	=70
2F	2.cc	.	4r	.
.	.	.	16ccL	la
.	.	.	16b-y	.
.	.	.	16cc	.
.	.	.	16ddJ	.
2E-X	.	.	[2ee-X	.
.	8b-y	mu-	.	.
.	8a	-si-	.	.
=71	=71	=71	=71	=71
2C	8aL	-c'ho-	4ee-]	.
.	8gJ	.	.	.
.	2g	.	8b-y	mu-
.	.	.	8a	-si-
2D	.	.	2a	-c'ho-
.	4f#X	.	.	.
=72	=72	=72	=72	=72
1GGl	1gl	-ra.	1gl	-ra.
==	==	==	==	==
*-	*-	*-	*-	*-
!!!system-decoration: [*]
!!!RDF**kern: i = editorial accidental
!!!RDF**kern: l = terminal long
!!!ENC: Emiliano Ricciardi
!!!END:
!!!EED: Ricciardi, Emiliano
!!!EEV: 2020/07/23
!!!YEC: Copyright 2018 Emiliano Ricciardi, All Rights Reserved
!!!ONB: Translated from MusicXML on 2020/07/23
!!@@BEGIN:	VERSEDATA
!!@CATALOGNUM:	Tsg16012
!!@LAST_MODIFIED: 2020/07/12
!!@TITLE:		Vezzosi augelli infra le verdi fronde
!!@CANTO:		XVI
!!@OTTAVA:	12
!!@MANUSRC:	G-Al, G-Au, G-Br<sub>1</sub>, G-Br<sub>2</sub>, G-Cv, G-Es<sub>1</sub>, G-Es<sub>2</sub>, G-Es<sub>3</sub>, G-F, G-Fr, G-Fr<sub>1</sub>, G-Fr<sub>2</sub>, G-Mc<sub>1</sub>, G-Mg, G-Mr, G-Mt, G-N, G-Ol
!!@PRINTSRC:	G-1580CM, G-1581B, G-1581CV, G-1581R, G-1581MR, G-1581P, G-1581V, G-1581V<sub>bis</sub>, G-1582C, G-1582M, G-1582MC, G-1582P, G-1582SC, G-1582SC<sub>bis</sub>, G-1583S, G-1584O, G-1584S, G-1585C, G-1585S, G-1588S, G-1589S, G-1590B, G-1590S, G-1592S, G-1593S, G-1594C, G-1595C, G-1597C, G-1598C, G-1599C, G-1600C, G-1600S, G-1601C, G-1601R, G-1602C, G-1604C, G-1604Cl, G-1604F, G-1604P, G-1606B, G-1606B<sub>bis</sub>, G-1606L, G-1607ZR, G-1608DP, G-1609GC, G-1610M, G-1611S, G-1611V, G-1612P, G-1613M, G-1613P, G-1613V, G-1615P, G-1616M, G-1617P, G-1619B, G-1619V, G-1620M, G-1620S, G-1621R, G-1624I, G-1624MT, G-1625C, G-1625S, G-1625SS, G-1626C, G-1626Co, G-1627M, G-1628T, G-1628Tu, G-1630L, G-1630T, G-1632FT, G-1639CF, G-1642M, G-1643I, G-1644P, G-1644S
!!@@BEGIN:	VERSES
!!@ABOUTIT:
!!@ABOUTEN:
!!@EDITOR:	Angelo Solerti
!!@EDITION_TITLE: Gerusalemme liberata. Poema eroico di Torquato Tasso. Edizione critica sui manoscritti e le prime stampe.
!!@EDITION_LOC:	Florence
!!@EDITION_PUB:	G. Barbera
!!@EDITION_DATE:  1895
!!@EDITION_VOL:
!!@EDITION_PAGE:
!!@TRANSLATOR:	Emiliano Ricciardi and Amyrose McCue Gill
!!@VERSE:
!!	Vezzosi augelli infra le verdi fronde
!!	Temprano a prova lascivette note.
!!	Mormora l’aura, e fa le foglie e l’onde
!!	Garrir, che variamente ella percote:
!!	Quando taccion gli augelli, alto risponde;
!!	Quando cantan gli augei, più lieve scote:
!!	Sia caso od arte, or accompagna ed ora
!!	Alterna i versi lor la musica ora.
!!@MVERSE_DATE: 20230824
!!@MVERSE:
!!	Vezzosi augelli infra le verdi fronde			=a
!!	Temprano a prova lascivette note.			=b
!!	Mormora l’aura, e fa le foglie e l’onde			=a
!!	Garrir, che variamente ella percote:			=b
!!	Quando taccion gli augelli, alto risponde;		=a
!!	Quando cantan gli augei, più lieve scote:		=b
!!	Sia caso od arte, or accompagna ed ora			=c
!!	Alterna i versi lor la musica ora.			=c
!!@TVERSE:
!!	Charming little birds in among the green fronds
!!	Make every effort to attempt lascivious little notes.
!!	The breeze murmurs, and makes the leaves and the waves
!!	Rustle, which variedly she strikes:
!!	When the little birds fall silent, she responds loudly;
!!	When the birds sing, more lightly she shakes:
!!	Be it chance or art, now accompanies and now
!!	Alternates [with] their verses the music.
!!@@END:		VERSES
!!@OTHER_CRIT_ED:  Torquato Tasso, <i>Gerusalemme liberata</i>, ed. Lanfranco Caretti, 2 vols. (Bari: Laterza, 1967).
!!@ATTRIBUTION_ABOUT:
!!@DATING:	mid-1560s through 1570s
!!@DEDICATEE:	Duke Alfonso II d'Este
!!@COMMENTARY:
!!@@END:		VERSEDATA
!!@@BEGIN: SETTING
!!@CATALOGNUM:	Tsg16012f
!!@CANTO:		XVI
!!@OTTAVA:	12
!!@TITLE:	Vezzosi augelli infra le verdi fronde
!!@SETTINGTITLE: Vezzos'Augelli in fra le verdi fronde
!!@COMPOSER:	Cifra, Antonio
!!@PARTS:		4 (verses 1-2; 3-4; 5-6; 7-8)
!!@PRINCEPSTITLE:	Li Diversi Scherzi a una, a due et tre voci. Libro primo
!!@PRINCEPSLOC:	Rome
!!@NORMLOC:	Rome
!!@NORMPUB:	Giovanni Battista Robletti
!!@NORMPUBSHORT:	Robletti
!!@PRINCEPSPUB:	Giovanni Battista Robletti
!!@PRINCEPSYEAR:	1613
!!@PRINCEPSRISM:	C 2214
!!@OVOICES:	2+bc
!!@EXTANTVOICES:	2+bc
!!@OMENSURATION:	C
!!@OCLEFS:	C1,C1,F4
!!@OTIME:		
!!@OKEYSIG:	b-
!!@FINAL:		(G)(G)(G)G
!!@TIMPEDITOR:	Ricciardi, Emiliano
!!@REPRINTS:	
!!@@END: SETTING
